fs/data_usage_toolbox_24_filled.svg

<svg viewBox="0 0 24 24" fill="none" xmlns="http://www.w3.org/2000/svg" height="1em" width="1em">
  <path d="M17.25 1.99609C18.7688 1.99609 20 3.22731 20 4.74609V11.3529C19.7616 11.2855 19.51 11.2494 19.25 11.2494H16V6.72881C16 6.32597 15.6642 5.9994 15.25 5.9994C14.8358 5.9994 14.5 6.32597 14.5 6.72881V11.5493C13.6096 12.0044 13 12.9307 13 13.9994V14.0494C12.5161 14.1476 12.083 14.3856 11.7446 14.7194L11.7146 11.7153C11.7106 11.3142 11.3795 10.9922 10.9751 10.9961C10.5707 11.0001 10.246 11.3285 10.25 11.7296L10.2854 15.277C10.2894 15.6781 10.6205 16.0001 11.0249 15.9962C11.0336 15.9961 11.0422 15.9958 11.0508 15.9955C11.0175 16.1582 11 16.3268 11 16.4994V19.9961H4.75C3.23122 19.9961 2 18.7649 2 17.2461V4.74609C2 3.22731 3.23122 1.99609 4.75 1.99609H17.25ZM6.75 7.9994C6.33579 7.9994 6 8.33374 6 8.74618V15.2526C6 15.6651 6.33579 15.9994 6.75 15.9994C7.16421 15.9994 7.5 15.6651 7.5 15.2526V8.74618C7.5 8.33374 7.16421 7.9994 6.75 7.9994ZM14 14.9994H13.5C12.6716 14.9994 12 15.671 12 16.4994V17.9994H14.5V17.7494C14.5 17.3352 14.8358 16.9994 15.25 16.9994C15.6642 16.9994 16 17.3352 16 17.7494V17.9994H19V17.7494C19 17.3352 19.3358 16.9994 19.75 16.9994C20.1642 16.9994 20.5 17.3352 20.5 17.7494V17.9994H23V16.4994C23 15.671 22.3284 14.9994 21.5 14.9994H21V13.9994C21 13.0329 20.2165 12.2494 19.25 12.2494H15.75C14.7835 12.2494 14 13.0329 14 13.9994V14.9994ZM15.5 13.9994C15.5 13.8613 15.6119 13.7494 15.75 13.7494H19.25C19.3881 13.7494 19.5 13.8613 19.5 13.9994V14.9994H15.5V13.9994ZM12 21.4994V19.4994H14.5V20.2494C14.5 20.6636 14.8358 20.9994 15.25 20.9994C15.6642 20.9994 16 20.6636 16 20.2494V19.4994H19V20.2494C19 20.6636 19.3358 20.9994 19.75 20.9994C20.1642 20.9994 20.5 20.6636 20.5 20.2494V19.4994H23V21.4994C23 22.3278 22.3284 22.9994 21.5 22.9994H13.5C12.6716 22.9994 12 22.3278 12 21.4994Z" fill="#212121"/>
</svg>

<svg viewBox="0 0 24 24" fill="none" xmlns="http://www.w3.org/2000/svg" height="1em" width="1em">
  <path d="M17.25 1.996A2.75 2.75 0 0 1 20 4.746v6.607a2.753 2.753 0 0 0-.75-.104H16V6.73a.74.74 0 0 0-.75-.73.74.74 0 0 0-.75.73v4.82A2.75 2.75 0 0 0 13 14v.05a2.494 2.494 0 0 0-1.255.67l-.03-3.004a.73.73 0 0 0-.74-.719.73.73 0 0 0-.725.734l.035 3.547a.73.73 0 0 0 .74.72l.026-.002A2.47 2.47 0 0 0 11 16.5v3.497H4.75A2.75 2.75 0 0 1 2 17.246v-12.5a2.75 2.75 0 0 1 2.75-2.75h12.5ZM6.75 8a.748.748 0 0 0-.75.747v6.507c0 .412.336.746.75.746s.75-.334.75-.746V8.746A.748.748 0 0 0 6.75 8ZM14 15h-.5a1.5 1.5 0 0 0-1.5 1.5V18h2.5v-.25a.75.75 0 0 1 1.5 0V18h3v-.25a.75.75 0 0 1 1.5 0V18H23v-1.5a1.5 1.5 0 0 0-1.5-1.5H21v-1a1.75 1.75 0 0 0-1.75-1.75h-3.5A1.75 1.75 0 0 0 14 14v1Zm1.5-1a.25.25 0 0 1 .25-.25h3.5a.25.25 0 0 1 .25.25v1h-4v-1ZM12 21.5v-2h2.5v.75a.75.75 0 0 0 1.5 0v-.75h3v.75a.75.75 0 0 0 1.5 0v-.75H23v2a1.5 1.5 0 0 1-1.5 1.5h-8a1.5 1.5 0 0 1-1.5-1.5Z" fill="#212121"/>
</svg>
